symbols/web/backspace/materialsymbolsoutlined/backspace_wght500gradN25fill1_24px.svg

<svg xmlns="http://www.w3.org/2000/svg" height="24" width="24"><path d="m11.425 15.95 2.55-2.525L16.5 15.95l1.425-1.425L15.4 12l2.525-2.525L16.5 8.05l-2.525 2.525-2.55-2.525L10 9.475 12.55 12 10 14.525ZM3 12l4.325-6.05q.3-.45.788-.7Q8.6 5 9.15 5h9.7q.875 0 1.513.625Q21 6.25 21 7.15v9.7q0 .9-.637 1.525-.638.625-1.513.625h-9.7q-.55 0-1.037-.25-.488-.25-.788-.7Z"/></svg>

<svg xmlns="http://www.w3.org/2000/svg" height="24" width="24"><path d="M11.425 15.95 13.975 13.425 16.5 15.95 17.925 14.525 15.4 12 17.925 9.475 16.5 8.05 13.975 10.575 11.425 8.05 10 9.475 12.55 12 10 14.525ZM3 12 7.325 5.95Q7.625 5.5 8.113 5.25Q8.6 5 9.15 5H18.85Q19.725 5 20.363 5.625Q21 6.25 21 7.15V16.85Q21 17.75 20.363 18.375Q19.725 19 18.85 19H9.15Q8.6 19 8.113 18.75Q7.625 18.5 7.325 18.05Z"/></svg>
